dist/icons/svgs/arrow-down-long-solid.svg

<svg xmlns="http://www.w3.org/2000/svg" width="24" height="24" fill="currentcolor" class="icon-arrow-down-long-solid" viewBox="0 0 24 24">
  <path d="M11.6016 21.6484L6.60156 16.6484C6.09375 16.1797 6.09375 15.3594 6.60156 14.8906C7.07031 14.3828 7.89062 14.3828 8.35938 14.8906L11.25 17.7422V3.25C11.25 2.58594 11.7969 2 12.5 2C13.1641 2 13.75 2.58594 13.75 3.25V17.7422L16.6016 14.8906C17.0703 14.3828 17.8906 14.3828 18.3594 14.8906C18.8672 15.3594 18.8672 16.1797 18.3594 16.6484L13.3594 21.6484C12.8906 22.1562 12.0703 22.1562 11.6016 21.6484Z"/>
</svg>

<svg xmlns="http://www.w3.org/2000/svg" width="24" height="24" fill="currentColor" class="icon-arrow-down-long-solid" viewBox="0 0 24 24">
  <path d="m11.602 21.648-5-5a1.205 1.205 0 0 1 0-1.757 1.205 1.205 0 0 1 1.757 0l2.891 2.851V3.25c0-.664.547-1.25 1.25-1.25.664 0 1.25.586 1.25 1.25v14.492l2.852-2.851a1.205 1.205 0 0 1 1.757 0 1.203 1.203 0 0 1 0 1.757l-5 5a1.205 1.205 0 0 1-1.757 0"/>
</svg>
